X: 1
T:Piece No. 4
L:1/4
Q:1/4=100
K:C
%Tests multiple voices separated into fragments.
V: upper
|: C D E F |[1 G A B c | G A B B :|[2 F E D C |
V: middle
c d e f  | z2 g2 | c e g2 | c2 g2 | c4 |

V: upper
|: C D E F |[1 G A B c | G A B B :|[2 F E D C |
V: middle
c d e f  | z2 g2 | c e g2 | c2 g2 | c4 |]